X: 22272
T: La Muneira Do Areal
R: jig
M: 6/8
K: Gmajor
|:GBd cAF|FAe dBA|GBg ~f3|efe dc/B/A|
GBd cAF|FAe dBA|GBg fed|1 cBA ~G3:|2 cBA G3-|G3 Gz2||

